app/dist/common/images/krka.svg

<svg fill="none" height="18" viewBox="0 0 18 18" width="18" xmlns="http://www.w3.org/2000/svg"><path d="m0 0h18v18h-18z" fill="#00ac49"/><path clip-rule="evenodd" d="m9.12819 4c1.01501 0 1.97581.31587 2.78551.82109l-4.32396 4.17891 4.41026 4.1471c-.8314.537-1.8137.8529-2.87181.8529-.50722 0-1.62819 0-2.12819-.5v-9c.5-.5 1.62078-.5 2.12819-.5zm-3.62819 1.5v7c-.8637-.9051-1.49998-2.163-1.49998-3.50018-.00187-1.27316.61013-2.56803 1.49998-3.49982zm7.9864 5.5-2.9864-2.99801 2.47-2.50004c.929.95538 1.03 1.77568 1.03 3.22003 0 .82259-.1968 1.58922-.5136 2.27802z" fill="#f0f3fa" fill-rule="evenodd"/></svg>

<!-- by TradingView --><svg width="18" height="18" viewBox="0 0 18 18" fill="none" xmlns="http://www.w3.org/2000/svg">
<rect width="18" height="18" fill="#00AC49"/>
<path fill-rule="evenodd" clip-rule="evenodd" d="M9.12819 4C10.1432 4 11.104 4.31587 11.9137 4.82109L7.58974 9L12 13.1471C11.1686 13.6841 10.1863 14 9.12819 14C8.62097 14 7.5 14 7 13.5V4.5C7.5 4 8.62078 4 9.12819 4ZM5.5 5.5V12.5C4.6363 11.5949 4.00002 10.337 4.00002 8.99982C3.99815 7.72666 4.61015 6.43179 5.5 5.5ZM13.4864 11L10.5 8.00199L12.97 5.50195C13.899 6.45733 14 7.27763 14 8.72198C14 9.54457 13.8032 10.3112 13.4864 11Z" fill="#F0F3FA"/>
</svg>
